Papirus/64x64/apps/billard-gl.svg

<svg xmlns="http://www.w3.org/2000/svg" width="64" height="64" version="1.1">
 <circle style="opacity:0.2" cx="11.213" cy="44.579" r="28" transform="rotate(-29.999999)"/>
 <circle style="fill:#e4e4e4" cx="11.713" cy="43.713" r="28" transform="rotate(-29.999999)"/>
 <g style="font-size:13.17357063px;line-height:1.25;letter-spacing:0px;word-spacing:0px;opacity:0.1" transform="matrix(1.0862883,-0.6261127,0.62716884,1.084459,2.0624734,1.879025)">
  <path d="m 8.1454244,34.322117 h 1.7520849 v -9.735269 h -2.977227 v 1.646696 h 1.2251421 z"/>
  <path d="m 15.160968,29.632326 h 0.289819 c 1.159274,0 1.910167,0.645505 1.910167,1.633522 0,0.935324 -0.645505,1.62035 -1.528134,1.62035 -0.843108,0 -1.462266,-0.592811 -1.580828,-1.514961 h -1.765259 c 0.105389,1.831126 1.488614,3.122136 3.359261,3.122136 1.88382,0 3.267045,-1.383225 3.267045,-3.267045 0,-1.225142 -0.513769,-2.068251 -1.51496,-2.516152 0.566463,-0.408381 0.816761,-0.92215 0.816761,-1.673044 0,-1.501787 -1.119753,-2.62154 -2.62154,-2.62154 -0.764068,0 -1.462267,0.302992 -1.949689,0.829935 -0.408381,0.447901 -0.566463,0.869455 -0.632331,1.65987 h 1.778432 c 0.07904,-0.605985 0.342513,-0.88263 0.816761,-0.88263 0.500596,0 0.856282,0.382034 0.856282,0.92215 0,0.408381 -0.197603,0.711373 -0.566463,0.869456 -0.223951,0.09221 -0.461075,0.118562 -0.935324,0.131736 z"/>
 </g>
 <path style="fill:#ffffff;opacity:0.2" d="M 31.339844 4.0078125 A 28 28 0 0 0 18 7.7519531 A 28 28 0 0 0 4.0273438 32.925781 A 28 28 0 0 1 18 8.7519531 A 28 28 0 0 1 56.248047 19 A 28 28 0 0 1 59.972656 32.074219 A 28 28 0 0 0 56.248047 18 A 28 28 0 0 0 31.339844 4.0078125 z"/>
 <path style="fill:#ffa81f" d="M 42.884766 6.2304688 C 35.060862 8.9073706 27.31943 11.899736 21.876953 14.84375 C 21.082669 15.273406 20.248663 15.746526 19.380859 16.251953 C 14.986971 18.811043 9.7582165 22.25132 4.7558594 25.689453 A 28 28 0 0 0 4.7421875 25.75 C 4.5551523 26.560941 4.4065035 27.377126 4.2929688 28.195312 A 28 28 0 0 0 4.2519531 28.513672 C 4.1586076 29.24817 4.0933987 29.984487 4.0585938 30.720703 A 28 28 0 0 0 4.0351562 31.630859 C 4.0266553 32.208594 4.0314229 32.785288 4.0585938 33.361328 A 28 28 0 0 0 4.171875 34.904297 C 4.208682 35.262485 4.2541101 35.62014 4.3046875 35.976562 A 28 28 0 0 0 4.6113281 37.716797 C 4.6709362 38.004805 4.7320901 38.291981 4.8007812 38.578125 A 28 28 0 0 0 5.3359375 40.488281 C 5.4047909 40.705884 5.4706887 40.924552 5.5449219 41.140625 A 28 28 0 0 0 6.3652344 43.228516 C 6.422605 43.360128 6.4737508 43.494149 6.5332031 43.625 A 28 28 0 0 0 7.7519531 46 A 28 28 0 0 0 8.7890625 47.65625 A 28 28 0 0 0 8.8164062 47.697266 A 28 28 0 0 0 16.546875 55.335938 C 20.616914 51.112291 26.465589 46.011913 34.035156 41.925781 C 41.250357 38.030941 50.866189 34.852085 59.964844 32.400391 A 28 28 0 0 0 57.679688 20.882812 C 57.567082 20.623248 57.450778 20.367275 57.332031 20.113281 A 28 28 0 0 0 56.248047 18 C 55.886798 17.37654 55.49959 16.772169 55.09375 16.181641 A 28 28 0 0 0 53.626953 14.228516 C 53.390067 13.941152 53.130631 13.6738 52.882812 13.396484 A 28 28 0 0 0 51.955078 12.388672 C 51.628581 12.057446 51.289662 11.740169 50.947266 11.425781 A 28 28 0 0 0 50.169922 10.736328 C 49.775493 10.400282 49.375604 10.069684 48.962891 9.7558594 A 28 28 0 0 0 48.332031 9.2988281 C 46.642902 8.0871332 44.82356 7.0466629 42.884766 6.2304688 z M 34.205078 13.003906 A 12.498861 12.498861 0 0 1 45.326172 19.25 A 12.498861 12.498861 0 0 1 40.75 36.326172 A 12.498861 12.498861 0 0 1 23.673828 31.75 A 12.498861 12.498861 0 0 1 28.25 14.673828 A 12.498861 12.498861 0 0 1 34.205078 13.003906 z"/>
 <path style="opacity:0.1" d="M 42.884766 6.2304688 C 35.060862 8.9073706 27.31943 11.899736 21.876953 14.84375 C 21.082669 15.273406 20.248663 15.746526 19.380859 16.251953 C 14.986971 18.811043 9.7582165 22.25132 4.7558594 25.689453 A 28 28 0 0 0 4.7421875 25.75 C 4.5551523 26.560941 4.4065035 27.377126 4.2929688 28.195312 A 28 28 0 0 0 4.2519531 28.513672 C 4.1586076 29.24817 4.0933987 29.984487 4.0585938 30.720703 A 28 28 0 0 0 4.0351562 31.630859 C 4.0319324 31.849959 4.0438309 32.068288 4.0449219 32.287109 A 28 28 0 0 1 4.0585938 31.720703 C 4.0933987 30.984487 4.1586081 30.24817 4.2519531 29.513672 A 28 28 0 0 1 4.2929688 29.195312 C 4.4065034 28.377126 4.5551523 27.560941 4.7421875 26.75 A 28 28 0 0 1 4.7558594 26.689453 C 9.7582165 23.25132 14.986971 19.811043 19.380859 17.251953 C 20.248663 16.746526 21.082669 16.273406 21.876953 15.84375 C 27.31943 12.899736 35.060862 9.9073705 42.884766 7.2304688 C 44.82356 8.0466629 46.642902 9.0871333 48.332031 10.298828 A 28 28 0 0 1 48.962891 10.755859 C 49.375604 11.069684 49.775493 11.400282 50.169922 11.736328 A 28 28 0 0 1 50.947266 12.425781 C 51.289662 12.740169 51.628581 13.057446 51.955078 13.388672 A 28 28 0 0 1 52.882812 14.396484 C 53.130631 14.6738 53.390067 14.941152 53.626953 15.228516 A 28 28 0 0 1 55.09375 17.181641 C 55.49959 17.772169 55.886798 18.37654 56.248047 19 A 28 28 0 0 1 57.332031 21.113281 C 57.450778 21.367275 57.567082 21.623248 57.679688 21.882812 A 28 28 0 0 1 59.929688 32.410156 C 59.941347 32.407013 59.953186 32.403532 59.964844 32.400391 A 28 28 0 0 0 57.679688 20.882812 C 57.567082 20.623248 57.450778 20.367275 57.332031 20.113281 A 28 28 0 0 0 56.248047 18 C 55.886798 17.37654 55.49959 16.772169 55.09375 16.181641 A 28 28 0 0 0 53.626953 14.228516 C 53.390067 13.941152 53.130631 13.6738 52.882812 13.396484 A 28 28 0 0 0 51.955078 12.388672 C 51.628581 12.057446 51.289662 11.740169 50.947266 11.425781 A 28 28 0 0 0 50.169922 10.736328 C 49.775493 10.400282 49.375604 10.069684 48.962891 9.7558594 A 28 28 0 0 0 48.332031 9.2988281 C 46.642902 8.0871332 44.82356 7.0466628 42.884766 6.2304688 z M 46.978516 25.939453 A 12.498861 12.498861 0 0 1 40.75 36.326172 A 12.498861 12.498861 0 0 1 23.673828 31.75 A 12.498861 12.498861 0 0 1 22.021484 26.060547 A 12.498861 12.498861 0 0 0 23.673828 32.75 A 12.498861 12.498861 0 0 0 40.75 37.326172 A 12.498861 12.498861 0 0 0 46.978516 25.939453 z"/>
 <g style="font-size:13.17357063px;line-height:1.25;letter-spacing:0px;word-spacing:0px;fill:#3f3f3f" transform="matrix(1.0862883,-0.6261127,0.62716884,1.084459,2.0624734,0.87902498)">
  <path style="fill:#3f3f3f" d="m 8.1454244,34.322117 h 1.7520849 v -9.735269 h -2.977227 v 1.646696 h 1.2251421 z"/>
  <path style="fill:#3f3f3f" d="m 15.160968,29.632326 h 0.289819 c 1.159274,0 1.910167,0.645505 1.910167,1.633522 0,0.935324 -0.645505,1.62035 -1.528134,1.62035 -0.843108,0 -1.462266,-0.592811 -1.580828,-1.514961 h -1.765259 c 0.105389,1.831126 1.488614,3.122136 3.359261,3.122136 1.88382,0 3.267045,-1.383225 3.267045,-3.267045 0,-1.225142 -0.513769,-2.068251 -1.51496,-2.516152 0.566463,-0.408381 0.816761,-0.92215 0.816761,-1.673044 0,-1.501787 -1.119753,-2.62154 -2.62154,-2.62154 -0.764068,0 -1.462267,0.302992 -1.949689,0.829935 -0.408381,0.447901 -0.566463,0.869455 -0.632331,1.65987 h 1.778432 c 0.07904,-0.605985 0.342513,-0.88263 0.816761,-0.88263 0.500596,0 0.856282,0.382034 0.856282,0.92215 0,0.408381 -0.197603,0.711373 -0.566463,0.869456 -0.223951,0.09221 -0.461075,0.118562 -0.935324,0.131736 z"/>
 </g>
</svg>

<?xml version="1.0" encoding="UTF-8" standalone="no"?>
<svg
   id="_图层_1"
   version="1.1"
   viewBox="0 0 64 64" width="64" height="64"
   sodipodi:docname="billard-gl.svg"
   xml:space="preserve"
   inkscape:version="1.4 (e7c3feb100, 2024-10-09)"
   xmlns:inkscape="http://www.inkscape.org/namespaces/inkscape"
   xmlns:sodipodi="http://sodipodi.sourceforge.net/DTD/sodipodi-0.dtd"
   xmlns="http://www.w3.org/2000/svg"
   xmlns:svg="http://www.w3.org/2000/svg"><sodipodi:namedview
     id="namedview26"
     pagecolor="#505050"
     bordercolor="#eeeeee"
     borderopacity="1"
     inkscape:showpageshadow="0"
     inkscape:pageopacity="0"
     inkscape:pagecheckerboard="0"
     inkscape:deskcolor="#505050"
     inkscape:zoom="10.6875"
     inkscape:cx="32"
     inkscape:cy="36.397661"
     inkscape:window-width="1920"
     inkscape:window-height="939"
     inkscape:window-x="0"
     inkscape:window-y="34"
     inkscape:window-maximized="1"
     inkscape:current-layer="_图层_1" /><!-- Generator: Adobe Illustrator 29.0.1, SVG Export Plug-In . SVG Version: 2.1.0 Build 192)  --><defs
     id="defs6"><style
       id="style1">
      .st0 {
        fill-opacity: .5;
      }

      .st0, .st1, .st2, .st3, .st4, .st5, .st6, .st7 {
        fill: #fff;
      }

      .st8 {
        fill: #133c9a;
      }

      .st2, .st9 {
        display: none;
      }

      .st3 {
        fill-opacity: .2;
      }

      .st4 {
        fill-opacity: .9;
      }

      .st10 {
        fill: #3370ff;
      }

      .st11 {
        fill: url(#_未命名的渐变_3);
      }

      .st12 {
        fill: url(#_未命名的渐变);
      }

      .st5 {
        fill-opacity: .3;
      }

      .st6 {
        fill-opacity: 0;
      }

      .st7 {
        fill-opacity: .7;
      }

      .st13 {
        fill: #00d6b9;
      }

      .st14 {
        fill: url(#_未命名的渐变_2);
      }
    </style><radialGradient
       id="_未命名的渐变"
       data-name="未命名的渐变"
       cx="123.9"
       cy="-40.2"
       fx="123.9"
       fy="-40.2"
       r="59.4"
       gradientTransform="translate(-26.8 25.5) scale(.6 -.7)"
       gradientUnits="userSpaceOnUse"><stop
         offset="0"
         stop-color="#db202e"
         id="stop1" /><stop
         offset="1"
         stop-color="#e01b24"
         id="stop2" /></radialGradient><radialGradient
       id="_未命名的渐变_2"
       data-name="未命名的渐变 2"
       cx="67.6"
       cy="26.8"
       fx="67.6"
       fy="26.8"
       r="105.2"
       gradientTransform="translate(-26.6 25.3) scale(.6 -.7)"
       gradientUnits="userSpaceOnUse"><stop
         offset="0"
         stop-color="#ffb648"
         id="stop3" /><stop
         offset="1"
         stop-color="#ff7800"
         stop-opacity="0"
         id="stop4" /></radialGradient><radialGradient
       id="_未命名的渐变_3"
       data-name="未命名的渐变 3"
       cx="61.7"
       cy="18.6"
       fx="61.7"
       fy="18.6"
       r="68"
       gradientTransform="translate(-26.8 25.8) scale(.6 -.7)"
       gradientUnits="userSpaceOnUse"><stop
         offset="0"
         stop-color="#c64600"
         id="stop5" /><stop
         offset="1"
         stop-color="#a51d2d"
         id="stop6" /></radialGradient><style
       id="style1-2">
      .st0, .st1, .st2, .st3, .st4, .st5 {
        isolation: isolate;
      }

      .st0, .st1, .st6, .st7, .st5, .st8 {
        display: none;
      }

      .st0, .st3, .st4, .st5 {
        opacity: .2;
      }

      .st1 {
        opacity: .1;
      }

      .st1, .st9, .st2, .st4, .st5 {
        fill: #fff;
      }

      .st10 {
        fill: #3f3f3f;
      }

      .st2 {
        opacity: .3;
      }

      .st6 {
        fill: #505d6e;
      }

      .st11, .st8 {
        fill: #ffcca3;
      }

      .st12 {
        fill: #fed24c;
      }

      .st13 {
        fill: #c2352a;
      }
    </style></defs><path
     class="st1"
     d="M 47.5,64.1 H 13.8 C 6.2,64.1 0,57.8 0,50.3 V 13.7 C 0,6.2 6.2,0 13.7,0 H 50.3 C 57.8,0 64,6.2 64,13.7 V 50.3 C 64,57.8 57.8,64 50.3,64 h -2.9 0.1 z"
     id="path6"
     style="display:inline;opacity:1;fill:#e4e4e4;fill-opacity:1" /><g
     id="g27"
     transform="matrix(1.1420217,0,0,1.132964,-4.685329,-4.4061757)"><g
       style="font-size:13.1736px;line-height:1.25;letter-spacing:0px;word-spacing:0px;opacity:0.1"
       transform="matrix(1.0862883,-0.6261127,0.62716884,1.084459,2.0624734,1.879025)"
       id="g3"><path
         d="m 8.1454244,34.322117 h 1.7520849 v -9.735269 h -2.977227 v 1.646696 h 1.2251421 z"
         id="path2" /><path
         d="m 15.160968,29.632326 h 0.289819 c 1.159274,0 1.910167,0.645505 1.910167,1.633522 0,0.935324 -0.645505,1.62035 -1.528134,1.62035 -0.843108,0 -1.462266,-0.592811 -1.580828,-1.514961 h -1.765259 c 0.105389,1.831126 1.488614,3.122136 3.359261,3.122136 1.88382,0 3.267045,-1.383225 3.267045,-3.267045 0,-1.225142 -0.513769,-2.068251 -1.51496,-2.516152 0.566463,-0.408381 0.816761,-0.92215 0.816761,-1.673044 0,-1.501787 -1.119753,-2.62154 -2.62154,-2.62154 -0.764068,0 -1.462267,0.302992 -1.949689,0.829935 -0.408381,0.447901 -0.566463,0.869455 -0.632331,1.65987 h 1.778432 c 0.07904,-0.605985 0.342513,-0.88263 0.816761,-0.88263 0.500596,0 0.856282,0.382034 0.856282,0.92215 0,0.408381 -0.197603,0.711373 -0.566463,0.869456 -0.223951,0.09221 -0.461075,0.118562 -0.935324,0.131736 z"
         id="path3" /></g><path
       style="fill:#ffa81f"
       d="M 42.884766,6.2304688 C 35.060862,8.9073706 27.31943,11.899736 21.876953,14.84375 c -0.794284,0.429656 -1.62829,0.902776 -2.496094,1.408203 -4.393888,2.55909 -9.6226425,5.999367 -14.6249996,9.4375 A 28,28 0 0 0 4.7421875,25.75 c -0.1870352,0.810941 -0.335684,1.627126 -0.4492187,2.445312 a 28,28 0 0 0 -0.041016,0.31836 c -0.093345,0.734498 -0.1585544,1.470815 -0.1933593,2.207031 a 28,28 0 0 0 -0.023438,0.910156 c -0.0085,0.577735 -0.00373,1.154429 0.023438,1.730469 a 28,28 0 0 0 0.1132812,1.542969 c 0.036807,0.358188 0.082235,0.715843 0.1328125,1.072265 a 28,28 0 0 0 0.3066406,1.740235 c 0.059608,0.288008 0.120762,0.575184 0.1894531,0.861328 a 28,28 0 0 0 0.5351563,1.910156 c 0.068853,0.217603 0.1347512,0.436271 0.2089844,0.652344 a 28,28 0 0 0 0.8203125,2.087891 c 0.057371,0.131612 0.1085164,0.265633 0.1679687,0.396484 a 28,28 0 0 0 1.21875,2.375 28,28 0 0 0 1.0371094,1.65625 28,28 0 0 0 0.027344,0.04102 28,28 0 0 0 7.7304688,7.638672 c 4.070039,-4.223647 9.918714,-9.324025 17.488281,-13.410157 7.215201,-3.89484 16.831033,-7.073696 25.929688,-9.52539 A 28,28 0 0 0 57.679688,20.882812 c -0.112606,-0.259564 -0.22891,-0.515537 -0.347657,-0.769531 A 28,28 0 0 0 56.248047,18 C 55.886798,17.37654 55.49959,16.772169 55.09375,16.181641 A 28,28 0 0 0 53.626953,14.228516 C 53.390067,13.941152 53.130631,13.6738 52.882812,13.396484 A 28,28 0 0 0 51.955078,12.388672 C 51.628581,12.057446 51.289662,11.740169 50.947266,11.425781 A 28,28 0 0 0 50.169922,10.736328 C 49.775493,10.400282 49.375604,10.069684 48.962891,9.7558594 A 28,28 0 0 0 48.332031,9.2988281 C 46.642902,8.0871332 44.82356,7.0466629 42.884766,6.2304688 Z M 34.205078,13.003906 A 12.498861,12.498861 0 0 1 45.326172,19.25 12.498861,12.498861 0 0 1 40.75,36.326172 12.498861,12.498861 0 0 1 23.673828,31.75 12.498861,12.498861 0 0 1 28.25,14.673828 12.498861,12.498861 0 0 1 34.205078,13.003906 Z"
       id="path5" /><path
       style="opacity:0.1"
       d="M 42.884766,6.2304688 C 35.060862,8.9073706 27.31943,11.899736 21.876953,14.84375 c -0.794284,0.429656 -1.62829,0.902776 -2.496094,1.408203 -4.393888,2.55909 -9.6226425,5.999367 -14.6249996,9.4375 A 28,28 0 0 0 4.7421875,25.75 c -0.1870352,0.810941 -0.335684,1.627126 -0.4492187,2.445312 a 28,28 0 0 0 -0.041016,0.31836 c -0.093345,0.734498 -0.1585544,1.470815 -0.1933593,2.207031 a 28,28 0 0 0 -0.023438,0.910156 c -0.00322,0.2191 0.00867,0.437429 0.00977,0.65625 a 28,28 0 0 1 0.013672,-0.566406 c 0.034805,-0.736216 0.1000143,-1.472533 0.1933593,-2.207031 a 28,28 0 0 1 0.041016,-0.31836 C 4.4065034,28.377126 4.5551523,27.560941 4.7421875,26.75 a 28,28 0 0 1 0.013672,-0.06055 c 5.0023571,-3.438133 10.2311115,-6.87841 14.6249995,-9.4375 0.867804,-0.505427 1.70181,-0.978547 2.496094,-1.408203 5.442477,-2.944014 13.183909,-5.9363795 21.007813,-8.6132812 1.938794,0.8161941 3.758136,1.8566645 5.447265,3.0683592 a 28,28 0 0 1 0.63086,0.457031 c 0.412713,0.313825 0.812602,0.644423 1.207031,0.980469 a 28,28 0 0 1 0.777344,0.689453 c 0.342396,0.314388 0.681315,0.631665 1.007812,0.962891 a 28,28 0 0 1 0.927734,1.007812 c 0.247819,0.277316 0.507255,0.544668 0.744141,0.832032 a 28,28 0 0 1 1.466797,1.953125 C 55.49959,17.772169 55.886798,18.37654 56.248047,19 a 28,28 0 0 1 1.083984,2.113281 c 0.118747,0.253994 0.235051,0.509967 0.347657,0.769531 a 28,28 0 0 1 2.25,10.527344 c 0.01166,-0.0031 0.0235,-0.0066 0.03516,-0.0098 a 28,28 0 0 0 -2.28516,-11.517544 c -0.112606,-0.259564 -0.22891,-0.515537 -0.347657,-0.769531 A 28,28 0 0 0 56.248047,18 C 55.886798,17.37654 55.49959,16.772169 55.09375,16.181641 A 28,28 0 0 0 53.626953,14.228516 C 53.390067,13.941152 53.130631,13.6738 52.882812,13.396484 A 28,28 0 0 0 51.955078,12.388672 C 51.628581,12.057446 51.289662,11.740169 50.947266,11.425781 A 28,28 0 0 0 50.169922,10.736328 C 49.775493,10.400282 49.375604,10.069684 48.962891,9.7558594 A 28,28 0 0 0 48.332031,9.2988281 C 46.642902,8.0871332 44.82356,7.0466628 42.884766,6.2304688 Z m 4.09375,19.7089842 A 12.498861,12.498861 0 0 1 40.75,36.326172 12.498861,12.498861 0 0 1 23.673828,31.75 12.498861,12.498861 0 0 1 22.021484,26.060547 12.498861,12.498861 0 0 0 23.673828,32.75 12.498861,12.498861 0 0 0 40.75,37.326172 12.498861,12.498861 0 0 0 46.978516,25.939453 Z"
       id="path6-5" /><g
       style="font-size:13.1736px;line-height:1.25;letter-spacing:0px;word-spacing:0px;fill:#3f3f3f"
       transform="matrix(1.0862883,-0.6261127,0.62716884,1.084459,2.0624734,0.87902498)"
       id="g8"><path
         style="fill:#3f3f3f"
         d="m 8.1454244,34.322117 h 1.7520849 v -9.735269 h -2.977227 v 1.646696 h 1.2251421 z"
         id="path7" /><path
         style="fill:#3f3f3f"
         d="m 15.160968,29.632326 h 0.289819 c 1.159274,0 1.910167,0.645505 1.910167,1.633522 0,0.935324 -0.645505,1.62035 -1.528134,1.62035 -0.843108,0 -1.462266,-0.592811 -1.580828,-1.514961 h -1.765259 c 0.105389,1.831126 1.488614,3.122136 3.359261,3.122136 1.88382,0 3.267045,-1.383225 3.267045,-3.267045 0,-1.225142 -0.513769,-2.068251 -1.51496,-2.516152 0.566463,-0.408381 0.816761,-0.92215 0.816761,-1.673044 0,-1.501787 -1.119753,-2.62154 -2.62154,-2.62154 -0.764068,0 -1.462267,0.302992 -1.949689,0.829935 -0.408381,0.447901 -0.566463,0.869455 -0.632331,1.65987 h 1.778432 c 0.07904,-0.605985 0.342513,-0.88263 0.816761,-0.88263 0.500596,0 0.856282,0.382034 0.856282,0.92215 0,0.408381 -0.197603,0.711373 -0.566463,0.869456 -0.223951,0.09221 -0.461075,0.118562 -0.935324,0.131736 z"
         id="path8" /></g></g></svg>
